X: 363
T: Bir Elif Çekdi Yine
C: Sadullah Ağa
O: Turkey
F: http://compmusic.upf.edu/node/140
N: muhayyer--yuruksemai--yuruksemai--bir_elif--sadullah_aga
N: makam= muhayyer
N: form= yuruksemai
N: usul= yuruksemai = 6/8
M: 6/8
L: 1/16
K: C _2/4B ^3/4f  
Q: 1/4=108
%%MIDI tuningsystem comma53
a8 f4g4 a6z2  | a8 b4a4 {b}g4{a}f4  | \
w:  Ah  bir  e lif   |  çek di  yi *  ne   | 
{g}e4d4 g4g2f2 g6f2  | g6z2 d'4c'2b2 {c'}b3aa4  | 
w:  *  *  sî ne me  *  câ  |  nân  bu  ge *  *  ce   | 
a2c'2b2a2 a2g2g2f2 f3ed4  | a8 f4g4 a6z2  | \
w:  vay    |  Ah  bir  e lif   | 
a8 b4a4 {b}g4{a}f4  | 
w:  çek di  yi *  ne   | 
{g}e4d4 g4g2f2 g6f2  | g6z2 d'4c'2b2 b3aa4  | \
w:  *  *  sî ne me  *  câ  |  nân  bu  ge *  ce   | 
a2c'2b2a2 a12z4  | 
w:  vay    | 
g4a8c'4 b2a2g2f2  | g4g4 g2f2b2a2 g2f2e4  | \
w:  A man  ey   |  a man  *  *  ey   | 
d4e8e3d c2d2c4  | 
w:  a man  ey   | 
d4e2f2 g2a2b2a2 g2f2e4  | z4d4 e4e4 g2e4d2  | \
w:  a man  *  *  *  ey   |  a man  a man    | 
e2d2d2c2 d4d2c2 d6c2  | 
w:  Sî *  *  *  ne me  *  câ  | 
d8 e4d2c2 c2B2A2B2  | c4c2B2 d4c2B2 B2A2B2A2  | \
w:  nân  bu  ge *  ce   |  yâr  *  *  bu  ge *  ce   | 
A12f2g2 a8  | 
w:  vay   SAZ  | 
a8 f4g4 a6z2  | a8 b4a4 {b}g4{a}f4  | \
w:  Ah  bir  e lif   |  çek di  yi *  ne   | 
{g}e4d4 g4g2f2 g6f2  | g6z2 d'4c'2b2 {c'}b3aa4  | 
w:  *  *  sî ne me  *  câ  |  nân  bu  ge *  *  ce   | 
a2c'2b2a2 a2g2g2f2 f3ed4  | a8 f4g4 a6z2  | \
w:  vay    |  Ah  bir  e lif   | 
a8 b4a4 {b}g4{a}f4  | 
w:  çek di  yi *  ne   | 
{g}e4d4 g4g2f2 g6f2  | g6z2 d'4c'2b2 b3aa4  | \
w:  *  *  sî ne me  *  câ  |  nân  bu  ge *  ce   | 
a2c'2b2a2 a12z4  | 
w:  vay    | 
g4a8c'4 b2a2g2f2  | g4g4 g2f2b2a2 g2f2e4  | \
w:  A man  ey   |  a man  *  *  ey   | 
d4e8e3d c2d2c4  | 
w:  a man  ey   | 
d4e2f2 g2a2b2a2 g2f2e4  | z4d4 e4e4 g2e4d2  | \
w:  a man  *  *  *  ey   |  a man  a man    | 
e2d2d2c2 d4d2c2 d6c2  | 
w:  Sî *  *  *  ne me  *  câ  | 
d8 e4d2c2 c2B2A2B2  | c4c2B2 d4c2B2 B2A2B2A2  | \
w:  nân  bu  ge *  ce   |  yâr  *  *  bu  ge *  ce   | 
A12a2b2 c'8  | 
w:  vay   SAZ  | 
c'8 a4b4 c'8  | c'8 b4d'4 c'4{d'}b4  | \
w:  Ah  a yın  on  |  dör dü  gi bi   | 
{c'}a4{b}g4 g4g4 d'2c'2d'2c'2  | c'4c'2b2 d'4c'2b2 b2a2a2b2  | 
w:  *  *  *  dün  ge ce  mec  |  lis *  *  de  i *  di   | 
c'12a2b2 c'8  | c'8 a4b4 c'8  | c'8 b4d'4 c'4{d'}b4  | \
w:  vay   SAZ  |  Ah  a yın  on  |  dör dü  gi bi   | 
{c'}a4{b}g4 g4g4 d'2c'2d'2c'2  | 
w:  *  *  *  dün  ge ce  mec  | 
c'4c'2b2 d'4c'2b2 b2a2a4  | a2c'2b2a2 a12z4  | \
w:  lis *  *  de  i *  di   |  vay    | 
g4a8c'4 b2a2g2f2  | 
w:  A man  ey   | 
g4g4 g2f2b2a2 g2f2e4  | d4e8e3d c2d2c4  | \
w:  a man  *  *  ey   |  a man  ey   | 
d4e2f2 g2a2b2a2 g2f2e4  | 
w:  a man  *  *  *  ey   | 
z4d4 e4e4 g2e4d2  | e2d2d2c2 d4d2c2 d6c2  | \
w:  a man  a man    |  Dün  *  *  *  ge ce  *  mec  | 
d8 e4d2c2 c2B2A2B2  | 
w:  lis de  *  *  mec  | 
c4c2B2 d4c2B2 B2A2B2A2  | A12f2g2 a8  | \
w:  lis *  *  de  i *  di   |  vay   SAZ  | 
a8 f4g4 a6z2  | a8 b4a4 {b}g4{a}f4  | 
w:  Ah  kan de  ak  |  şam la ya *  cak   | 
{g}e4d4 g4g2f2 g6f2  | g6z2 d'4c'2b2 {c'}b3aa4  | \
w:  *  *  ol  meh_ i  *  tâ  |  bân  bu  ge *  *  ce   | 
a2c'2b2a2 a2g2g2f2 f3ed4  | 
w:  vay    | 
a8 f4g4 a6z2  | a8 b4a4 {b}g4{a}f4  | \
w:  Ah  kan de  ak  |  şam la ya *  cak   | 
{g}e4d4 g4g2f2 g6f2  | g6z2 d'4c'2b2 {c'}b3aa4  | 
w:  *  *  ol  meh_ i  *  tâ  |  bân  bu  ge *  *  ce   | 
a2c'2b2a2 a12z4  | g4a8c'4 b2a2g2f2  | \
w:  vay    |  A man  ey   | 
g4g4 g2f2b2a2 g2f2e4  | 
w:  a man  *  *  ey   | 
d4e8e3d c2d2c4  | d4e2f2 g2a2b2a2 g2f2e4  | \
w:  a man  ey   |  a man  *  *  *  ey   | 
z4d4 e4e4 g2e4d2  | 
w:  a man  a man    | 
e2d2d2c2 d4d2c2 d6c2  | d8 e4d2c2 c2B2A2B2  | \
w:  Ol  *  *  *  meh_ i  *  tâ  |  bân  bu  ge *  ce   | 
c4c2B2 d4c2B2 B2A2B2A2  | 
w:  yâr  *  *  bu  ge *  ce   | 
A12z12  | |


